X: 8359
T: Country
R: waltz
M: 3/4
K: Dmajor
FE|D2F2A2|A3G FE|D2F2Ad|f2d2ef|g2e2ag|f2d2cd|ef ed cB|AB AG FE|
D2F2A2|A3G FE|D2F2Ad|f2d2 ef|g2e2ag|f2d2cd|e2B2c2|d4Ad||
f3e dB|A3G FE|D2F2Ad|B2A2ef|g3f ed|c3 d cB|A2c2e2|b2a2ag|
f3e dB|A3G FE|D2F2Ad|B2A2ef|g3f ed|c3 d cB|A2B2c2|d4||

